resources/icons/20px/data-search.svg

<svg width="20" height="20" viewBox="0 0 20 20" fill="none" xmlns="http://www.w3.org/2000/svg">
<path d="M2 9.5V4.1C3.5 5.23 6.52 6 10 6C13.49 6 16.51 5.23 18 4.1V9.5C17.9989 9.55334 17.9936 9.60651 17.984 9.659C17.3231 8.67431 16.3853 7.90748 15.2889 7.45531C14.1926 7.00314 12.9868 6.88589 11.8239 7.11837C10.661 7.35085 9.593 7.92263 8.75475 8.76154C7.9165 9.60045 7.34556 10.6689 7.114 11.832C4.12 11.47 2 10.562 2 9.5ZM7 12.906V13C7.00075 14.4208 7.50525 15.7953 8.42383 16.8792C9.34241 17.9631 10.6156 18.6862 12.017 18.92C11.373 18.972 10.697 19 10 19C5.58 19 2 17.88 2 16.5V11.1C3.047 11.889 4.835 12.502 7.003 12.801L7 12.906Z" fill="black"/>
<path d="M18 2.5C18 3.88 14.42 5 10 5C5.59 5 2 3.88 2 2.5C2 1.12 5.58 0 10 0C14.42 0 18 1.12 18 2.5ZM15.757 17.172C15.0686 17.6264 14.2786 17.9036 13.4572 17.9788C12.6358 18.054 11.8085 17.9249 11.0491 17.6029C10.2897 17.281 9.62164 16.7763 9.10449 16.1338C8.58733 15.4912 8.23711 14.7307 8.085 13.92C8.02833 13.622 8 13.3153 8 13V12.922C8.01979 11.7613 8.44271 10.6435 9.19626 9.76044C9.94982 8.87734 10.9871 8.28384 12.1303 8.08169C13.2734 7.87954 14.4513 8.08131 15.462 8.65243C16.4727 9.22354 17.2533 10.1284 17.67 11.212C17.8884 11.7828 18.0002 12.3888 18 13C18 14.019 17.695 14.967 17.172 15.757L19.706 18.291C19.8936 18.4786 19.9991 18.7331 19.9991 18.9985C19.9991 19.2639 19.8936 19.5184 19.706 19.706C19.5184 19.8936 19.2639 19.9991 18.9985 19.9991C18.7331 19.9991 18.4786 19.8936 18.291 19.706L15.757 17.172ZM13 16C13.7956 16 14.5587 15.6839 15.1213 15.1213C15.6839 14.5587 16 13.7956 16 13C16 12.2044 15.6839 11.4413 15.1213 10.8787C14.5587 10.3161 13.7956 10 13 10C12.2044 10 11.4413 10.3161 10.8787 10.8787C10.3161 11.4413 10 12.2044 10 13C10 13.7956 10.3161 14.5587 10.8787 15.1213C11.4413 15.6839 12.2044 16 13 16Z" fill="black"/>
</svg>

<svg xmlns="http://www.w3.org/2000/svg" viewBox="0 0 20 20">
  <path d="M2 9.5V4.1C3.5 5.23 6.52 6 10 6c3.49 0 6.51-.77 8-1.9v5.4a1 1 0 0 1-.016.159 6.002 6.002 0 0 0-10.87 2.173C4.12 11.47 2 10.562 2 9.5m5 3.406V13a6.005 6.005 0 0 0 5.017 5.92c-.644.052-1.32.08-2.017.08-4.42 0-8-1.12-8-2.5v-5.4c1.047.789 2.835 1.402 5.003 1.701z"/>
  <path d="M18 2.5C18 3.88 14.42 5 10 5 5.59 5 2 3.88 2 2.5S5.58 0 10 0s8 1.12 8 2.5m-2.243 14.672A5.003 5.003 0 0 1 8 13v-.078a5.002 5.002 0 0 1 9.67-1.71 5 5 0 0 1-.498 4.545l2.534 2.534a1 1 0 1 1-1.415 1.415zM13 16a3 3 0 1 0 0-6 3 3 0 0 0 0 6"/>
</svg>
